libs/ui/packages/crypto-icons/src/svg/currency_scroll.svg

<svg width="24" height="24" stroke-miterlimit="10" version="1.1" viewBox="0 0 24 24" xml:space="preserve" xmlns="http://www.w3.org/2000/svg" xmlns:xlink="http://www.w3.org/1999/xlink">
  <path d="M5.27108 9.98188C4.58648 9.33349 4.10148 8.49308 4.10148 7.49057L4.10148 7.38458C4.15758 5.68131 5.56038 4.31096 7.26108 4.2561L18.1117 4.2561C18.396 4.26607 18.6242 4.46932 18.6242 4.75735L18.6242 13.9358C18.8748 13.982 18.9945 14.0119 19.2352 14.0992C19.4222 14.1677 19.6903 14.3186 19.6903 14.3186L19.6903 4.7586C19.6741 3.88826 18.9845 3.1875 18.1117 3.1875L7.26108 3.1875C4.92068 3.22615 3.03538 5.13766 3.03538 7.49057C3.03538 8.85718 3.65758 10.0205 4.67758 10.841C4.74608 10.8959 4.81348 10.9669 4.99548 10.9657C5.31468 10.9657 5.53918 10.7138 5.52668 10.4358C5.51548 10.2063 5.41948 10.1228 5.27108 9.98188Z" fill="#000000" fill-rule="nonzero" opacity="1" stroke="none"/>
  <path d="M17.8349 14.5456L9.32348 14.5456C8.75238 14.5505 8.28978 15.0156 8.28978 15.588L8.28978 16.8087C8.30598 17.3735 8.78728 17.8586 9.35718 17.8586L9.98938 17.8586L9.98938 16.8087L9.35718 16.8087L9.35718 15.6142L9.70258 15.6142C10.7762 15.6142 11.5667 16.6142 11.5667 17.6803C11.5667 18.6254 10.7063 19.8362 9.26118 19.7402C7.97808 19.6541 7.28978 18.5145 7.28978 17.6803L7.28978 7.30727C7.28978 6.83844 6.90948 6.45813 6.44068 6.45813L5.59278 6.45813L5.59278 7.51675L6.22368 7.51675L6.22368 17.679C6.19128 19.7451 7.69628 20.7876 9.26238 20.7876L17.8349 20.8125C19.5631 20.8125 20.9646 19.4097 20.9646 17.679C20.9646 15.9483 19.5631 14.5456 17.8349 14.5456ZM19.8972 17.7476C19.8611 18.8574 18.9521 19.7464 17.8349 19.7464L11.8697 19.7227C12.346 19.1728 12.6328 18.4571 12.6328 17.679C12.6328 16.4546 11.9034 15.6129 11.9034 15.6129L17.8349 15.6129C18.9745 15.6129 19.8985 16.5381 19.8985 17.679L19.8985 17.7464L19.8972 17.7476Z" fill="#000000" fill-rule="nonzero" opacity="1" stroke="none"/>
  <path d="M9.12898 6.64891L15.5443 6.64891C15.8361 6.64891 16.073 6.88582 16.073 7.1776L16.073 7.1776C16.073 7.46937 15.8361 7.70628 15.5443 7.70628L9.12898 7.70628L9.12898 6.64766L9.12898 6.64766L9.12898 6.64891Z" fill="#000000" fill-rule="nonzero" opacity="1" stroke="none"/>
  <path d="M9.12898 11.6453L15.5443 11.6453C15.8361 11.6453 16.073 11.8822 16.073 12.1739L16.073 12.1739C16.073 12.4657 15.8361 12.7026 15.5443 12.7026L9.12898 12.7026L9.12898 11.644L9.12898 11.644L9.12898 11.6453Z" fill="#000000" fill-rule="nonzero" opacity="1" stroke="none"/>
  <path d="M9.12898 9.14771L16.6728 9.14771C16.9645 9.14771 17.2014 9.38462 17.2014 9.67639L17.2014 9.67639C17.2014 9.96817 16.9645 10.2051 16.6728 10.2051L9.12898 10.2051L9.12898 9.14646L9.12898 9.14646L9.12898 9.14771Z" fill="#000000" fill-rule="nonzero" opacity="1" stroke="none"/>
</svg>

<svg xmlns="http://www.w3.org/2000/svg" xml:space="preserve" width="24" height="24" viewBox="0 0 24 24" stroke-miterlimit="10"><path d="M5.271 9.982c-.685-.649-1.17-1.489-1.17-2.491v-.106c.057-1.704 1.46-3.074 3.16-3.129h10.85c.285.01.513.213.513.501v9.179c.25.046.37.076.611.163.187.069.455.22.455.22v-9.56a1.583 1.583 0 0 0-1.578-1.572H7.262a4.3 4.3 0 0 0-4.227 4.304c0 1.366.623 2.53 1.643 3.35.068.055.135.126.317.125.32 0 .544-.252.532-.53-.012-.23-.108-.313-.256-.454"/><path d="M17.835 14.546H9.323a1.043 1.043 0 0 0-1.033 1.042v1.22c.016.566.497 1.05 1.067 1.05h.632v-1.05h-.632v-1.194h.346c1.073 0 1.864 1 1.864 2.066 0 .945-.86 2.156-2.306 2.06-1.283-.086-1.971-1.225-1.971-2.06V7.307a.85.85 0 0 0-.85-.849h-.847v1.059h.63v10.162c-.032 2.066 1.473 3.109 3.04 3.109l8.572.024a3.13 3.13 0 0 0 3.13-3.133 3.13 3.13 0 0 0-3.13-3.133m2.062 3.202a2.065 2.065 0 0 1-2.062 1.998l-5.965-.023c.476-.55.763-1.266.763-2.044 0-1.224-.73-2.066-.73-2.066h5.932c1.14 0 2.063.925 2.063 2.066v.069M9.129 6.649h6.415a.529.529 0 0 1 0 1.057H9.13V6.648"/><path d="M9.129 11.645h6.415a.529.529 0 0 1 0 1.057H9.13zm0-2.497h7.544a.529.529 0 0 1 0 1.057H9.129V9.146z"/></svg>
